app/app/components/industry-icon/assets/programming.svg

<svg xmlns="http://www.w3.org/2000/svg" preserveAspectRatio="xMinYMin" viewBox="0 0 24 24"><desc>Programming User Head Streamline Icon: https://streamlinehq.com</desc><path fill="none" stroke="#000" stroke-linecap="round" stroke-linejoin="round" d="M11.5 20.5h1m5.5-6a6 6 0 0 0-12 0v2a6 6 0 0 0 12 0Z"/><path fill="none" stroke="#000" stroke-linecap="round" stroke-linejoin="round" d="M6 14.481C7.288 14.37 9.5 13 9.5 11c1.5 2.5 3.5 3.5 6.5 3.5h2M6 16.786c0 .946 1.766 1.714 2.917 1.714A1.926 1.926 0 0 0 11 16.786c0-.947-.933-1.286-2.083-1.286S6 15.839 6 16.786m12 0c0 .946-1.766 1.714-2.917 1.714A1.926 1.926 0 0 1 13 16.786c0-.947.933-1.286 2.083-1.286S18 15.839 18 16.786m-5-.286h-2m9.5-15h.5a.5.5 0 0 1 .5.5v3.5m-1 0h2m-2 3h.5a.5.5 0 0 1 .5.5v3.5m-1 0h2m-21-11H2a.5.5 0 0 1 .5.5v3.5m-1 0h2m-2 11H2a.5.5 0 0 1 .5.5v3.5m-1 0h2m13-16a1 1 0 0 1-2 0v-2a1 1 0 0 1 2 0Zm6 15a1 1 0 0 1-2 0v-2a1 1 0 0 1 2 0Zm-13-15a1 1 0 0 1-2 0v-2a1 1 0 0 1 2 0Zm-6 7a1 1 0 0 1-2 0v-2a1 1 0 0 1 2 0Z"/></svg>

<svg xmlns="http://www.w3.org/2000/svg" viewBox="0 0 24 24" preserveAspectRatio="xMinYMin"><desc>Programming User Head Streamline Icon: https://streamlinehq.com</desc><path fill="none" stroke="#000" stroke-linecap="round" stroke-linejoin="round" d="M11.5 20.5h1M18 14.5a6 6 0 0 0-12 0v2a6 6 0 0 0 12 0Z"/><path fill="none" stroke="#000" stroke-linecap="round" stroke-linejoin="round" d="M6 14.481C7.288 14.37 9.5 13 9.5 11c1.5 2.5 3.5 3.5 6.5 3.5h2M6 16.786c0 .946 1.766 1.714 2.917 1.714A1.926 1.926 0 0 0 11 16.786c0-.947-.933-1.286-2.083-1.286S6 15.839 6 16.786M18 16.786c0 .946-1.766 1.714-2.917 1.714A1.926 1.926 0 0 1 13 16.786c0-.947.933-1.286 2.083-1.286S18 15.839 18 16.786M13 16.5h-2M20.5 1.5h.5a.5.5 0 0 1 .5.5v3.5M20.5 5.5h2M20.5 8.5h.5a.5.5 0 0 1 .5.5v3.5M20.5 12.5h2M1.5 1.5H2a.5.5 0 0 1 .5.5v3.5M1.5 5.5h2M1.5 16.5H2a.5.5 0 0 1 .5.5v3.5M1.5 20.5h2M16.5 4.5a1 1 0 0 1-2 0v-2a1 1 0 0 1 2 0ZM22.5 19.5a1 1 0 0 1-2 0v-2a1 1 0 0 1 2 0ZM9.5 4.5a1 1 0 0 1-2 0v-2a1 1 0 0 1 2 0ZM3.5 11.5a1 1 0 0 1-2 0v-2a1 1 0 0 1 2 0Z"/></svg>
